X:148
T:Condon's Frolics
M:6/8
L:1/8
R:jig
K:Ador
eAB c2d | edc Bcd | eAB c2d | e2d eag |
eAB c2d | edc AB2 | GBd gdB |1 A3 a2g :|2 A3 AB/c/d |:
eaa efg | dec BAG | cGe d2d | e2d efg |
eaa efg | dec BAB | GBd gdB |1 A3 AB/c/d :|2 A3 a2g |]
